assets/icons/24px/stroke/light-bulb-24px.svg

<svg width="24" height="24" viewBox="0 0 24 24" fill="none" xmlns="http://www.w3.org/2000/svg">
<path fill-rule="evenodd" clip-rule="evenodd" d="M8.24741 5.03936C7.4301 5.95883 7 7.21307 7 8.5C7 9.75306 7.40843 10.6605 7.8779 11.5211C7.93778 11.6309 8.00263 11.7467 8.06944 11.8659C8.25007 12.1883 8.44509 12.5364 8.59546 12.8622C8.81286 13.3332 9 13.8799 9 14.5C9 15.0523 8.55228 15.5 8 15.5C7.44772 15.5 7 15.0523 7 14.5C7 14.2868 6.93714 14.0418 6.77954 13.7003C6.66384 13.4496 6.52882 13.2088 6.36591 12.9181C6.29085 12.7842 6.20986 12.6397 6.1221 12.4789C5.59157 11.5062 5 10.2469 5 8.5C5 6.78693 5.5699 5.04117 6.75259 3.71064C7.95164 2.3617 9.72864 1.5 12 1.5C14.2714 1.5 16.0484 2.3617 17.2474 3.71064C18.4301 5.04117 19 6.78693 19 8.5C19 10.2469 18.4084 11.5062 17.8779 12.4789C17.7901 12.6397 17.7092 12.7842 17.6341 12.9181C17.4712 13.2088 17.3362 13.4496 17.2205 13.7003C17.0629 14.0418 17 14.2868 17 14.5C17 15.0523 16.5523 15.5 16 15.5C15.4477 15.5 15 15.0523 15 14.5C15 13.8799 15.1871 13.3332 15.4045 12.8622C15.5549 12.5364 15.7499 12.1883 15.9306 11.8659C15.9974 11.7467 16.0622 11.6309 16.1221 11.5211C16.5916 10.6605 17 9.75306 17 8.5C17 7.21307 16.5699 5.95883 15.7526 5.03936C14.9516 4.1383 13.7286 3.5 12 3.5C10.2714 3.5 9.04836 4.1383 8.24741 5.03936Z" fill="white"/>
<path fill-rule="evenodd" clip-rule="evenodd" d="M7.5 17.5C7.5 16.9477 7.94772 16.5 8.5 16.5H15.5C16.0523 16.5 16.5 16.9477 16.5 17.5C16.5 18.0523 16.0523 18.5 15.5 18.5H8.5C7.94772 18.5 7.5 18.0523 7.5 17.5Z" fill="white"/>
<path fill-rule="evenodd" clip-rule="evenodd" d="M9 21C9 20.4477 9.44772 20 10 20H14C14.5523 20 15 20.4477 15 21C15 21.5523 14.5523 22 14 22H10C9.44772 22 9 21.5523 9 21Z" fill="white"/>
</svg>

<svg width="24" height="24" fill="none" xmlns="http://www.w3.org/2000/svg"><path fill-rule="evenodd" clip-rule="evenodd" d="M8.247 5.04C7.43 5.958 7 7.212 7 8.5c0 1.253.408 2.16.878 3.021l.191.345c.181.322.376.67.526.996.218.471.405 1.018.405 1.638a1 1 0 1 1-2 0c0-.213-.063-.458-.22-.8-.116-.25-.251-.491-.414-.782a43.003 43.003 0 0 1-.244-.44C5.592 11.507 5 10.248 5 8.5c0-1.713.57-3.459 1.753-4.79C7.952 2.363 9.729 1.5 12 1.5s4.048.862 5.247 2.21C18.43 5.042 19 6.788 19 8.5c0 1.747-.592 3.006-1.122 3.979l-.244.44c-.163.29-.298.53-.413.781-.158.342-.221.587-.221.8a1 1 0 1 1-2 0c0-.62.187-1.167.405-1.638.15-.326.345-.674.526-.996l.191-.345c.47-.86.878-1.768.878-3.021 0-1.287-.43-2.541-1.247-3.46C14.952 4.137 13.729 3.5 12 3.5s-2.952.638-3.753 1.54zM7.5 17.5a1 1 0 0 1 1-1h7a1 1 0 1 1 0 2h-7a1 1 0 0 1-1-1zM9 21a1 1 0 0 1 1-1h4a1 1 0 1 1 0 2h-4a1 1 0 0 1-1-1z" fill="#fff"/></svg>
